src/images/svg/symbols/markets-stocks-and-indices/american-stocks/stocks-sony.svg

<svg width="32" height="32" viewBox="0 0 32 32" fill="none" xmlns="http://www.w3.org/2000/svg">
<path d="M0 16C0 7.16344 7.16344 0 16 0C24.8366 0 32 7.16344 32 16C32 24.8366 24.8366 32 16 32C7.16344 32 0 24.8366 0 16Z" fill="black"/>
<path d="M11.9752 18.4648C10.9609 18.4648 10.0194 18.1606 9.39088 17.5965C8.91606 17.1703 8.6879 16.5914 8.6879 15.9956C8.6879 15.4071 8.9259 14.8242 9.39082 14.4002C9.97449 13.8683 11.005 13.5352 11.9752 13.5352C13.0489 13.5352 13.9082 13.8056 14.5651 14.4017C15.0325 14.8259 15.2585 15.4062 15.2585 15.9957C15.2585 16.5671 15.0187 17.1756 14.5651 17.5965C13.9534 18.1643 12.9921 18.4648 11.9752 18.4648V17.8146C12.5136 17.8146 13.0129 17.6287 13.3617 17.2817C13.708 16.937 13.8694 16.5134 13.8694 15.9956C13.8694 15.4996 13.6953 15.0359 13.3617 14.7069C13.0176 14.368 12.5063 14.1773 11.9752 14.1773C11.4425 14.1773 10.9308 14.366 10.5864 14.7069C10.2546 15.0357 10.0801 15.5008 10.0801 15.9956C10.0801 16.4889 10.2566 16.9537 10.5864 17.2818C10.9311 17.6246 11.4409 17.8147 11.9752 17.8147V18.4648V18.4648ZM4.56172 13.5375C4.01915 13.5375 3.40276 13.639 2.87902 13.8729C2.39565 14.0886 2 14.4374 2 15.0157C1.99978 15.5365 2.33077 15.8415 2.32178 15.8331C2.46256 15.9627 2.68921 16.1833 3.28176 16.3129C3.54658 16.3709 4.11276 16.4598 4.67659 16.5187C5.23625 16.5778 5.78703 16.6339 6.01137 16.6907C6.1896 16.736 6.489 16.7978 6.489 17.1337C6.489 17.4683 6.17357 17.5704 6.11875 17.5925C6.06399 17.6142 5.6856 17.7878 5.00539 17.7878C4.50319 17.7878 3.89945 17.6368 3.67938 17.558C3.42569 17.4678 3.15958 17.3483 2.91135 17.0451C2.84961 16.9699 2.75223 16.7632 2.75223 16.5585H2.13663V18.2835H2.82088V18.0504C2.82088 18.0239 2.85406 17.9147 2.96892 17.9666C3.11185 18.0316 3.5314 18.1986 3.97006 18.2902C4.32974 18.3654 4.56166 18.4194 5.00882 18.4194C5.73839 18.4194 6.13034 18.3005 6.40129 18.2231C6.65655 18.15 6.97197 18.0188 7.22818 17.8145C7.36695 17.704 7.67124 17.4208 7.67124 16.9067C7.67124 16.4133 7.40642 16.1071 7.31325 16.0139C7.18635 15.8869 7.03134 15.7885 6.86981 15.7127C6.72908 15.6465 6.50699 15.5669 6.32527 15.5224C5.97257 15.4358 5.17508 15.329 4.7937 15.2891C4.39378 15.2473 3.70002 15.1899 3.42294 15.1041C3.33894 15.0781 3.16768 14.9965 3.16768 14.7977C3.16768 14.6563 3.246 14.5364 3.40079 14.4395C3.64649 14.2856 4.14279 14.1899 4.66011 14.1899C5.27173 14.1876 5.78967 14.3275 6.11915 14.4748C6.2312 14.5248 6.36232 14.5967 6.46645 14.6817C6.58396 14.7775 6.74892 14.9766 6.80858 15.2543H7.36127V13.7527H6.74414V13.9273C6.74414 13.9836 6.68595 14.0568 6.57592 13.9963C6.29974 13.8514 5.51889 13.5388 4.56161 13.5375H4.56172ZM18.0857 13.8104L21.0961 16.5272L21.0652 14.698C21.0622 14.4581 21.018 14.358 20.7585 14.358H20.1925V13.8108H22.7665V14.358H22.2144C21.9498 14.358 21.9331 14.4426 21.9299 14.698L21.9765 18.1931H21.095L17.6277 15.0985L17.6284 17.2947C17.6314 17.5335 17.6426 17.6459 17.8886 17.6459H18.5068V18.1929H15.9789V17.646H16.5698C16.7906 17.646 16.7818 17.4355 16.7818 17.2823V14.7188C16.7818 14.5533 16.7586 14.3584 16.412 14.3584H15.9325V13.8104H18.0857ZM25.7078 17.6449C25.732 17.6449 25.8394 17.6418 25.8602 17.6355C25.9196 17.6169 25.9599 17.5745 25.9786 17.5303C25.9864 17.5118 25.9904 17.4297 25.9904 17.4119L25.9908 16.5471C25.9908 16.5263 25.9893 16.5173 25.954 16.471C25.9152 16.4204 24.3772 14.6774 24.3068 14.6007C24.2194 14.5054 24.0659 14.3581 23.8326 14.3581H23.2978V13.8107H26.3163V14.3574H25.9524C25.8683 14.3574 25.8123 14.4372 25.8842 14.526C25.8842 14.526 26.8998 15.7408 26.9094 15.7535C26.9189 15.7664 26.927 15.7695 26.9399 15.7577C26.9526 15.7456 27.981 14.5371 27.9891 14.5275C28.038 14.4689 28.0048 14.358 27.8994 14.358H27.5261V13.8107H30V14.358H29.4473C29.2468 14.358 29.1652 14.3951 29.0144 14.5656C28.9454 14.6437 27.3909 16.418 27.3487 16.466C27.3265 16.4912 27.3284 16.5262 27.3284 16.547V17.4116C27.3284 17.4292 27.3324 17.5114 27.3402 17.5298C27.3589 17.5742 27.3995 17.6166 27.4589 17.635C27.4797 17.6414 27.5856 17.6445 27.6097 17.6445H28.1751V18.1918H25.1721V17.6445L25.7079 17.6449H25.7078Z" fill="white"/>
</svg>

<svg width="32" height="32" fill="none" xmlns="http://www.w3.org/2000/svg"><path d="M0 16C0 7.163 7.163 0 16 0s16 7.163 16 16-7.163 16-16 16S0 24.837 0 16Z" fill="#000"/><path d="M11.975 18.465c-1.014 0-1.956-.304-2.584-.869a2.12 2.12 0 0 1-.703-1.6c0-.589.238-1.172.703-1.596.583-.532 1.614-.865 2.584-.865 1.074 0 1.933.27 2.59.867.468.424.694 1.004.694 1.594 0 .571-.24 1.18-.694 1.6-.612.568-1.573.869-2.59.869v-.65c.539 0 1.038-.186 1.387-.533.346-.345.507-.769.507-1.286 0-.496-.174-.96-.507-1.29-.344-.338-.856-.529-1.387-.529-.532 0-1.044.189-1.389.53-.331.329-.506.794-.506 1.289 0 .493.177.958.506 1.286.345.343.855.533 1.39.533v.65Zm-7.413-4.928c-.543 0-1.16.102-1.683.336-.483.216-.879.564-.879 1.143 0 .52.33.825.322.817.14.13.367.35.96.48.265.058.83.147 1.395.206.56.059 1.11.115 1.334.172.179.045.478.107.478.443 0 .334-.315.436-.37.459-.055.021-.433.195-1.114.195a4.719 4.719 0 0 1-1.326-.23c-.253-.09-.52-.21-.768-.513a.882.882 0 0 1-.159-.487h-.615v1.726h.684v-.234c0-.026.033-.135.148-.083.143.065.562.232 1.001.323.36.075.592.13 1.039.13.73 0 1.121-.12 1.392-.197.256-.073.571-.204.827-.409.139-.11.443-.393.443-.907 0-.494-.265-.8-.358-.893a1.561 1.561 0 0 0-.443-.301 3.262 3.262 0 0 0-.545-.19c-.352-.087-1.15-.194-1.531-.234-.4-.042-1.094-.1-1.371-.185-.084-.026-.255-.107-.255-.306 0-.142.078-.262.233-.358.245-.154.742-.25 1.26-.25a3.648 3.648 0 0 1 1.458.285c.112.05.243.122.347.207.118.095.283.295.343.572h.552v-1.501h-.617v.174c0 .057-.058.13-.168.07-.276-.146-1.057-.458-2.014-.46Zm13.524.273 3.01 2.717-.03-1.829c-.004-.24-.048-.34-.307-.34h-.567v-.547h2.575v.547h-.553c-.264 0-.28.085-.284.34l.047 3.495h-.882l-3.467-3.095v2.197c.003.238.015.35.26.35h.619v.548h-2.528v-.547h.59c.222 0 .213-.21.213-.364V14.72c0-.166-.023-.36-.37-.36h-.48v-.549h2.154Zm7.622 3.835c.024 0 .131-.003.152-.01a.19.19 0 0 0 .119-.105.615.615 0 0 0 .011-.118v-.865c0-.02 0-.03-.036-.076-.039-.05-1.577-1.794-1.647-1.87-.088-.096-.241-.243-.474-.243h-.535v-.547h3.018v.546h-.364c-.084 0-.14.08-.068.169 0 0 1.016 1.215 1.025 1.228.01.012.018.016.03.004.014-.012 1.042-1.22 1.05-1.23a.105.105 0 0 0-.09-.17h-.373v-.547H30v.547h-.553c-.2 0-.282.037-.433.208l-1.665 1.9c-.023.025-.02.06-.02.081v.865c0 .017.003.1.011.118.019.044.06.087.119.105.02.006.127.01.15.01h.566v.547h-3.003v-.547h.536Z" fill="#fff"/></svg>
